X: 1
T: Orkney Slow Air
M: 2/4
L: 1/8
R: polka
K: Gmaj
B,2EF|G2FE|F2Ad|F2D|E2GA|
B3|d2AG|F3|B,2EF|G2FE|
F2Ad|F2D|E2B|A2FD|E3|E3||
d2AG|F3|defd|AF2|gfeg|
B3|efge|B3|B,2EF|G2EF|F2Ad|
F2D|E2B|A2FD|E3|E3||
